view-sequential-outline.svg

<svg fill="currentColor" viewBox="0 0 24 24"><path d="M3 5v14h18V5zm16 2v2H5V7zm0 4v2H5v-2zM5 17v-2h14v2z"/></svg>

<svg  viewBox="0 0 24 24" fill="currentColor"><path  d="M3 5V19H21V5H3M19 7V9H5V7H19M19 11V13H5V11H19M5 17V15H19V17H5Z"/></svg>
